X:183
T:Greenwood
C:Adam Steffey solo
N:From the Tony Triska CD " World Turns" Transcribed by Andy Show Transcribed by Mike Stangeland
R:bluegrass
L:1/8
Q:1/4=290
M:4/4
K:G
z2 D2 E2 F2 | "G"GG GD EF GA | B2 Bd dA Bd | "F"cB AG E=F FG | =F2 FF FD F^F | 
"D"=F2 A2 GA AB | cB AD EF GE | "G"DC B,A, G,B, DF | {F}GG GA Bc de | ga ba ge ba | 
ge ag eg =fg | "F"a=f gf eg fe | =f^f a=f ^f=f ed | "D"Bc dB cB AF | GB AF EF GE | 
"G"=FE D^A, B,E DB, | G,4 D2 a^c' | "A"ze a^c' ze d'a | e'^c' ae c'a ea | "D"ea c'a zd' ae | 
c'a eb ge dg | "G"ed Bc dB cA | Gc AG EF GE | "C"=FE DC B,G, A,B, | C2 CC C2 B,G, | 
"A"A,2 A,A, B,^C E2 | A2 GA AB ^c2 | "D"EF FF FD =FE | DF EF Gc Ac | "G"AG EG =FE FE | 
=FE DC B,G, A,B, | "C"CB, CD ED EF | "D"GB A^A BA =AG | "G"EF GE DC B,A, | G,8 | 
z8 | z8 | z8 | z8 | z8 | z8 | z8 | z8 | z8 | z8 | z8 | z8 | z8 | z8 | z8 | z8 | 
z8 | z8 | z8 | z8 | z8 | z8 | z8 | z8 | 


